X:0833
T:Miss Jean Robertson's Reel.
N:initial rest added to make things add up
M:C
L:1/8
Q:1/2=112
I: :: ||
Z:Jack Campin * www.campin.me.uk * 2009
K:D
z| D2FA     dAFA   |D2FA GEEF| D/D/D (FA) dAFA   | dfeg    (fd)d   :|
g|(fd).f.g (ae).f.d|ecef gcec|(fd).f.g   (ae).f.d| efga     fddg    |
  (fd).f.g (ae).f.d|ecef gcec|(fa).d.f   (gb).e.g|(fa).e.g (fd)(df)|]
<end>
<start>
